X: 176
T: Garfield's Blackberry Blossom
B: canberra pickers and fiddlers
B: old time tunes update
B: tunes
M:4/4
L:1/8
Q: 1/4=100
K:C
V:1 
GABc d2 [d2f2] | d^cBd cBGB | cBGF DCB,C | "D"DCB,D "G"G,2 [G,2F2] ||
GABc d2 [d2g2] | d^cBd cBGB | cBGF DCB,C | [1 "D"DCB,D "G"G,2 [G,2F2]:| [2 "D"DCB,D "G"G,2 [d2g2]-|]
"G"[dg]ag2 "F"[Af]gf2 | "G"d^cBd cBGA | gagB d^cBc | "D"dgga "G"g2[d2g2]- |
"G"[dg]ag2 "F"[Af]gf2 | "G"d^cBd cBGB | cBGF DCB,C | "D"DCB,D "G"G,2 [d2g2]-||
"G"[dg]ag2 "F"[Af]gf2 | "G"d^cBd cBGA | gagB d^cBc | "D"dgga "G"g2 ga |
bga^f gagB | d^cBd cBGB | cBGF DCB,C | "D"DCB,D "G"G,4 |] G,2F2 
 |:"G"[G,2G2] Bc d2 [d2f2] | d^cBd cBGF | GABc d2 [d2f2] | d^cBG G2F2 |
G,2G2  Bc d2 [d2f2] | d^cBd cBGF | GABc d2 [d2f2] | d^cBG G2F2 |
% abcbook-tune_id 67a7d9ec937d1a93f9ecaac3
% abcbook-tune_composer_id 
% abcbook-link-0 https://www.youtube.com/watch?v=oR4QsT_ObLg
% abcbook-link-title-0 The Wildmans - &quot;Garfield&#39;s Blackberry Blossom&quot;
% abcbook-boost 0
% abcbook-difficulty 0
% abcbook-tags old time tunes
% abcbook-tablature 
% abcbook-transpose 
% abcbook-tuning GDAD
% abcbook-lastupdated 1739163930991
% abcbook-src-url 
% abcbook-soundfonts 
% abcbook-repeats 1


